images/hand.svg

<svg clip-rule="evenodd" fill-rule="evenodd" stroke-linecap="round" stroke-linejoin="round" stroke-miterlimit="1.5" viewBox="0 0 503 571" xmlns="http://www.w3.org/2000/svg" xmlns:xlink="http://www.w3.org/1999/xlink"><radialGradient id="a" cx="0" cy="0" gradientTransform="matrix(-343.876 -782.944 782.944 -343.876 3373.01 6878.62)" gradientUnits="userSpaceOnUse" r="1"><stop offset="0" stop-color="#ffa600"/><stop offset=".48" stop-color="#ffc71b"/><stop offset="1" stop-color="#ffd123"/></radialGradient><clipPath id="b"><path clip-rule="evenodd" d="m3417.5 6248.55c.07-21.86 16.61-40.15 38.35-42.42.28-.03.55-.06.83-.09 24.65-2.57 47.05 14.49 51.13 38.94 12.13 72.63 35.64 213.53 40.56 243.01.6 3.55 1.41 7.06 2.43 10.52 11.13 38.56 72.57 288.93-172.29 391.04-188.62 78.65-339.18-51.61-410.62-227.26-48.91-120.27-97.1-234.31-122.52-294.01-10.29-24.08.43-51.97 24.19-62.96 11.35-5.26 24.33-5.77 36.06-1.43 11.73 4.33 21.25 13.17 26.45 24.54 32.63 71.3 94.44 206.36 94.44 206.36l15.1-15.78s-79.3-186.16-119.41-280.34c-5.92-13.88-5.89-29.58.06-43.45 5.96-13.87 17.34-24.7 31.48-29.97.4-.14.79-.29 1.19-.44 20.02-7.46 42.39 1.93 51.08 21.45 35.71 80.16 120.86 271.29 120.86 271.29l21.42-8.65s-88.46-206.79-132.37-309.43c-6.17-14.44-5.96-30.81.59-45.08s18.83-25.1 33.8-29.82c.97-.31 1.92-.61 2.87-.91 16.37-5.16 34.02 2.68 41.16 18.29 38 83.07 149.5 326.86 149.5 326.86l19.63-5.49s-82.39-190.64-125.07-289.39c-6.35-14.7-6.13-31.4.61-45.93 6.74-14.52 19.36-25.48 34.68-30.12.82-.24 1.63-.49 2.43-.73 16.29-4.94 33.73 2.94 40.8 18.43 42.69 93.55 181.5 397.71 181.5 397.71l18.4-7.41s.45-130.52.68-197.33z"/></clipPath><g transform="matrix(.617118 -.0628832 .0628832 .617118 -2128.38 -3504.92)"><path d="m3417.5 6248.55c.07-21.86 16.61-40.15 38.35-42.42.28-.03.55-.06.83-.09 24.65-2.57 47.05 14.49 51.13 38.94 12.13 72.63 35.64 213.53 40.56 243.01.6 3.55 1.41 7.06 2.43 10.52 11.13 38.56 72.57 288.93-172.29 391.04-188.62 78.65-339.18-51.61-410.62-227.26-48.91-120.27-97.1-234.31-122.52-294.01-10.29-24.08.43-51.97 24.19-62.96 11.35-5.26 24.33-5.77 36.06-1.43 11.73 4.33 21.25 13.17 26.45 24.54 32.63 71.3 94.44 206.36 94.44 206.36l15.1-15.78s-79.3-186.16-119.41-280.34c-5.92-13.88-5.89-29.58.06-43.45 5.96-13.87 17.34-24.7 31.48-29.97.4-.14.79-.29 1.19-.44 20.02-7.46 42.39 1.93 51.08 21.45 35.71 80.16 120.86 271.29 120.86 271.29l21.42-8.65s-88.46-206.79-132.37-309.43c-6.17-14.44-5.96-30.81.59-45.08s18.83-25.1 33.8-29.82c.97-.31 1.92-.61 2.87-.91 16.37-5.16 34.02 2.68 41.16 18.29 38 83.07 149.5 326.86 149.5 326.86l19.63-5.49s-82.39-190.64-125.07-289.39c-6.35-14.7-6.13-31.4.61-45.93 6.74-14.52 19.36-25.48 34.68-30.12.82-.24 1.63-.49 2.43-.73 16.29-4.94 33.73 2.94 40.8 18.43 42.69 93.55 181.5 397.71 181.5 397.71l18.4-7.41s.45-130.52.68-197.33z" fill="url(#a)"/><g clip-path="url(#b)"><path d="m3413.45 6447.66s-250.74 74.93-138.31 325.23" fill="none" stroke="#303745" stroke-width="44.78"/></g><path d="m3417.5 6248.55c.07-21.86 16.61-40.15 38.35-42.42.28-.03.55-.06.83-.09 24.65-2.57 47.05 14.49 51.13 38.94 12.13 72.63 35.64 213.53 40.56 243.01.6 3.55 1.41 7.06 2.43 10.52 11.13 38.56 72.57 288.93-172.29 391.04-188.62 78.65-339.18-51.61-410.62-227.26-48.91-120.27-97.1-234.31-122.52-294.01-10.29-24.08.43-51.97 24.19-62.96 11.35-5.26 24.33-5.77 36.06-1.43 11.73 4.33 21.25 13.17 26.45 24.54 32.63 71.3 94.44 206.36 94.44 206.36l15.1-15.78s-79.3-186.16-119.41-280.34c-5.92-13.88-5.89-29.58.06-43.45 5.96-13.87 17.34-24.7 31.48-29.97.4-.14.79-.29 1.19-.44 20.02-7.46 42.39 1.93 51.08 21.45 35.71 80.16 120.86 271.29 120.86 271.29l21.42-8.65s-88.46-206.79-132.37-309.43c-6.17-14.44-5.96-30.81.59-45.08s18.83-25.1 33.8-29.82c.97-.31 1.92-.61 2.87-.91 16.37-5.16 34.02 2.68 41.16 18.29 38 83.07 149.5 326.86 149.5 326.86l19.63-5.49s-82.39-190.64-125.07-289.39c-6.35-14.7-6.13-31.4.61-45.93 6.74-14.52 19.36-25.48 34.68-30.12.82-.24 1.63-.49 2.43-.73 16.29-4.94 33.73 2.94 40.8 18.43 42.69 93.55 181.5 397.71 181.5 397.71l18.4-7.41s.45-130.52.68-197.33z" fill="none" stroke="#303745" stroke-width="44.78"/></g></svg>

<?xml version="1.0" encoding="UTF-8" standalone="no"?>
<!DOCTYPE svg PUBLIC "-//W3C//DTD SVG 1.1//EN" "http://www.w3.org/Graphics/SVG/1.1/DTD/svg11.dtd">
<svg width="100%" height="100%" viewBox="0 0 503 571" version="1.1" xmlns="http://www.w3.org/2000/svg" xmlns:xlink="http://www.w3.org/1999/xlink" xml:space="preserve" xmlns:serif="http://www.serif.com/" style="fill-rule:evenodd;clip-rule:evenodd;stroke-linecap:round;stroke-linejoin:round;stroke-miterlimit:1.5;">
    <g transform="matrix(1,0,0,1,-5307.24,-1750.22)">
        <g transform="matrix(0.617118,-0.0628832,0.0628832,0.617118,3178.86,-1754.7)">
            <path d="M3417.5,6248.55C3417.57,6226.69 3434.11,6208.4 3455.85,6206.13C3456.13,6206.1 3456.4,6206.07 3456.68,6206.04C3481.33,6203.47 3503.73,6220.53 3507.81,6244.98C3519.94,6317.61 3543.45,6458.51 3548.37,6487.99C3548.97,6491.54 3549.78,6495.05 3550.8,6498.51C3561.93,6537.07 3623.37,6787.44 3378.51,6889.55C3189.89,6968.2 3039.33,6837.94 2967.89,6662.29C2918.98,6542.02 2870.79,6427.98 2845.37,6368.28C2835.08,6344.2 2845.8,6316.31 2869.56,6305.32C2869.56,6305.32 2869.56,6305.32 2869.56,6305.32C2880.91,6300.06 2893.89,6299.55 2905.62,6303.89C2917.35,6308.22 2926.87,6317.06 2932.07,6328.43C2964.7,6399.73 3026.51,6534.79 3026.51,6534.79L3041.61,6519.01C3041.61,6519.01 2962.31,6332.85 2922.2,6238.67C2916.28,6224.79 2916.31,6209.09 2922.26,6195.22C2928.22,6181.35 2939.6,6170.52 2953.74,6165.25C2954.14,6165.11 2954.53,6164.96 2954.93,6164.81C2974.95,6157.35 2997.32,6166.74 3006.01,6186.26C3041.72,6266.42 3126.87,6457.55 3126.87,6457.55L3148.29,6448.9C3148.29,6448.9 3059.83,6242.11 3015.92,6139.47C3009.75,6125.03 3009.96,6108.66 3016.51,6094.39C3023.06,6080.12 3035.34,6069.29 3050.31,6064.57C3051.28,6064.26 3052.23,6063.96 3053.18,6063.66C3069.55,6058.5 3087.2,6066.34 3094.34,6081.95C3132.34,6165.02 3243.84,6408.81 3243.84,6408.81L3263.47,6403.32C3263.47,6403.32 3181.08,6212.68 3138.4,6113.93C3132.05,6099.23 3132.27,6082.53 3139.01,6068C3145.75,6053.48 3158.37,6042.52 3173.69,6037.88C3174.51,6037.64 3175.32,6037.39 3176.12,6037.15C3192.41,6032.21 3209.85,6040.09 3216.92,6055.58C3259.61,6149.13 3398.42,6453.29 3398.42,6453.29L3416.82,6445.88C3416.82,6445.88 3417.27,6315.36 3417.5,6248.55Z" style="fill:url(#_Radial1);"/>
            <clipPath id="_clip2">
                <path d="M3417.5,6248.55C3417.57,6226.69 3434.11,6208.4 3455.85,6206.13C3456.13,6206.1 3456.4,6206.07 3456.68,6206.04C3481.33,6203.47 3503.73,6220.53 3507.81,6244.98C3519.94,6317.61 3543.45,6458.51 3548.37,6487.99C3548.97,6491.54 3549.78,6495.05 3550.8,6498.51C3561.93,6537.07 3623.37,6787.44 3378.51,6889.55C3189.89,6968.2 3039.33,6837.94 2967.89,6662.29C2918.98,6542.02 2870.79,6427.98 2845.37,6368.28C2835.08,6344.2 2845.8,6316.31 2869.56,6305.32C2869.56,6305.32 2869.56,6305.32 2869.56,6305.32C2880.91,6300.06 2893.89,6299.55 2905.62,6303.89C2917.35,6308.22 2926.87,6317.06 2932.07,6328.43C2964.7,6399.73 3026.51,6534.79 3026.51,6534.79L3041.61,6519.01C3041.61,6519.01 2962.31,6332.85 2922.2,6238.67C2916.28,6224.79 2916.31,6209.09 2922.26,6195.22C2928.22,6181.35 2939.6,6170.52 2953.74,6165.25C2954.14,6165.11 2954.53,6164.96 2954.93,6164.81C2974.95,6157.35 2997.32,6166.74 3006.01,6186.26C3041.72,6266.42 3126.87,6457.55 3126.87,6457.55L3148.29,6448.9C3148.29,6448.9 3059.83,6242.11 3015.92,6139.47C3009.75,6125.03 3009.96,6108.66 3016.51,6094.39C3023.06,6080.12 3035.34,6069.29 3050.31,6064.57C3051.28,6064.26 3052.23,6063.96 3053.18,6063.66C3069.55,6058.5 3087.2,6066.34 3094.34,6081.95C3132.34,6165.02 3243.84,6408.81 3243.84,6408.81L3263.47,6403.32C3263.47,6403.32 3181.08,6212.68 3138.4,6113.93C3132.05,6099.23 3132.27,6082.53 3139.01,6068C3145.75,6053.48 3158.37,6042.52 3173.69,6037.88C3174.51,6037.64 3175.32,6037.39 3176.12,6037.15C3192.41,6032.21 3209.85,6040.09 3216.92,6055.58C3259.61,6149.13 3398.42,6453.29 3398.42,6453.29L3416.82,6445.88C3416.82,6445.88 3417.27,6315.36 3417.5,6248.55Z"/>
            </clipPath>
            <g clip-path="url(#_clip2)">
                <path d="M3413.45,6447.66C3413.45,6447.66 3162.71,6522.59 3275.14,6772.89" style="fill:none;stroke:rgb(48,55,69);stroke-width:44.78px;"/>
            </g>
            <path d="M3417.5,6248.55C3417.57,6226.69 3434.11,6208.4 3455.85,6206.13C3456.13,6206.1 3456.4,6206.07 3456.68,6206.04C3481.33,6203.47 3503.73,6220.53 3507.81,6244.98C3519.94,6317.61 3543.45,6458.51 3548.37,6487.99C3548.97,6491.54 3549.78,6495.05 3550.8,6498.51C3561.93,6537.07 3623.37,6787.44 3378.51,6889.55C3189.89,6968.2 3039.33,6837.94 2967.89,6662.29C2918.98,6542.02 2870.79,6427.98 2845.37,6368.28C2835.08,6344.2 2845.8,6316.31 2869.56,6305.32C2869.56,6305.32 2869.56,6305.32 2869.56,6305.32C2880.91,6300.06 2893.89,6299.55 2905.62,6303.89C2917.35,6308.22 2926.87,6317.06 2932.07,6328.43C2964.7,6399.73 3026.51,6534.79 3026.51,6534.79L3041.61,6519.01C3041.61,6519.01 2962.31,6332.85 2922.2,6238.67C2916.28,6224.79 2916.31,6209.09 2922.26,6195.22C2928.22,6181.35 2939.6,6170.52 2953.74,6165.25C2954.14,6165.11 2954.53,6164.96 2954.93,6164.81C2974.95,6157.35 2997.32,6166.74 3006.01,6186.26C3041.72,6266.42 3126.87,6457.55 3126.87,6457.55L3148.29,6448.9C3148.29,6448.9 3059.83,6242.11 3015.92,6139.47C3009.75,6125.03 3009.96,6108.66 3016.51,6094.39C3023.06,6080.12 3035.34,6069.29 3050.31,6064.57C3051.28,6064.26 3052.23,6063.96 3053.18,6063.66C3069.55,6058.5 3087.2,6066.34 3094.34,6081.95C3132.34,6165.02 3243.84,6408.81 3243.84,6408.81L3263.47,6403.32C3263.47,6403.32 3181.08,6212.68 3138.4,6113.93C3132.05,6099.23 3132.27,6082.53 3139.01,6068C3145.75,6053.48 3158.37,6042.52 3173.69,6037.88C3174.51,6037.64 3175.32,6037.39 3176.12,6037.15C3192.41,6032.21 3209.85,6040.09 3216.92,6055.58C3259.61,6149.13 3398.42,6453.29 3398.42,6453.29L3416.82,6445.88C3416.82,6445.88 3417.27,6315.36 3417.5,6248.55Z" style="fill:none;stroke:rgb(48,55,69);stroke-width:44.78px;"/>
        </g>
    </g>
    <defs>
        <radialGradient id="_Radial1" cx="0" cy="0" r="1" gradientUnits="userSpaceOnUse" gradientTransform="matrix(-343.876,-782.944,782.944,-343.876,3373.01,6878.62)"><stop offset="0" style="stop-color:rgb(255,166,0);stop-opacity:1"/><stop offset="0.48" style="stop-color:rgb(255,199,27);stop-opacity:1"/><stop offset="1" style="stop-color:rgb(255,209,35);stop-opacity:1"/></radialGradient>
    </defs>
</svg>
